X:1
T:Title
%%score ( 1 2 ) ( 3 4 )
L:1/8
Q:1/4=100
M:6/8
K:C
V:1 treble nm="Grand Piano, Soprano"
V:2 treble 
V:3 bass nm="Choir Pad, Renfield, 87.87 D"
V:4 bass 
V:1
 [Ec]2 [Ec] [Ge][Fd][Ec] | [FA]2 [FA] [Ac][GB][FA] | G2 [Ec] [Ec]2 [Ge] | [Ge]2 [Gc] [Gd]3 | %4
w: By~E.~Roberts,~1864 * * * *||||
 [Ec]2 [Ec] [Ge][Fd][Ec] | [FA]2 [FA] [Ac][GB][FA] | G2 [Ec] [Ec]2 [^Fd] | [Ge]2 [Fd] [Ec]3 | %8
w: ||||
 [GB]2 [GB] [GB][Ac][Bd] | [Bd]2 [Ac] [Ac]2 [GB] | [Gc]2 [Gc] cd[Ge] | [Gf]2 [Ge] e2 d | %12
w: ||||
 [Ec]2 [Ec] [Ge][Fd][Ec] | [FA]2 [FA] [Ac][GB][FA] | G2 [Ec] [Ec]2 [^Fd] | [Ge]3 [Fd]3 | [Ec]6- | %17
w: |||||
 [Ec]3 z3 |] %18
w: |
V:2
 x6 | x6 | x6 | x6 | x6 | x6 | x6 | x6 | x6 | x6 | z3 .G3 | z3 G3 | x6 | x6 | x6 | x6 | x6 | x6 |] %18
V:3
 [C,G,]2 [C,G,] [C,C]2 [C,C] | [F,C]2 [F,C] [F,C]2 [F,C] | [E,C]2 [C,G,] [C,G,]2 [C,C] | %3
 [C,C]2 [E,C] [G,B,]3 | [C,G,]2 [C,G,] [C,C]2 [C,C] | [F,C]2 [F,C] [F,C]2 [F,C] | %6
 [E,C]2 [C,C] [A,C]2 [A,C] | [G,C]2 [G,B,] [C,C]3 | [G,D]2 [G,D] [G,D]2 [G,D] | %9
 [D,D]2 [D,D] [G,D]2 [G,D] | [E,C]2 [E,C] [E,C][G,B,][K:treble]C | [B,D]2 C C2 B, | %12
 [C,G,]2 [C,G,] [C,C]2 [C,C] | [F,C]2 [F,C] [F,C]2 [F,C] | [E,C]2 [C,C] [A,C]2 [A,C] | %15
 [G,C]3 [G,B,]3 | [C,C]6- | [C,C]3 z3 |] %18
V:4
 x6 | x6 | x6 | x6 | x6 | x6 | x6 | x6 | x6 | x6 | x5[K:treble] x | z3 G,3 | x6 | x6 | x6 | x6 | %16
 x6 | x6 |] %18

